www/assets/icons/thermostat_auto.svg

<svg xmlns="http://www.w3.org/2000/svg" width="24" height="24" viewBox="0 0 24 24" fill='currentColor'><path d="M10.5 12V6c0-1.66-1.34-3-3-3s-3 1.34-3 3v6c-1.21.91-2 2.37-2 4 0 1.12.38 2.14 1 2.97V19h.02c.91 1.21 2.35 2 3.98 2s3.06-.79 3.98-2h.02v-.03c.62-.83 1-1.85 1-2.97 0-1.63-.79-3.09-2-4m-6 4c0-.94.45-1.84 1.2-2.4l.8-.6V6c0-.55.45-1 1-1s1 .45 1 1v7l.8.6c.75.57 1.2 1.46 1.2 2.4zM18.12 4h-1.61l-3.38 9h1.56l.81-2.3h3.63l.8 2.3h1.57zm-2.15 5.39 1.31-3.72h.08l1.31 3.72z"/></svg>

<svg width="24" height="24" viewBox="0 0 24 24" xmlns="http://www.w3.org/2000/svg" fill='currentColor'><path d="M10.5 12V6C10.5 4.34 9.16 3 7.5 3C5.84 3 4.5 4.34 4.5 6V12C3.29 12.91 2.5 14.37 2.5 16C2.5 17.12 2.88 18.14 3.5 18.97V19H3.52C4.43 20.21 5.87 21 7.5 21C9.13 21 10.56 20.21 11.48 19H11.5V18.97C12.12 18.14 12.5 17.12 12.5 16C12.5 14.37 11.71 12.91 10.5 12ZM4.5 16C4.5 15.06 4.95 14.16 5.7 13.6L6.5 13V6C6.5 5.45 6.95 5 7.5 5C8.05 5 8.5 5.45 8.5 6V13L9.3 13.6C10.05 14.17 10.5 15.06 10.5 16H4.5ZM18.12 4H16.51L13.13 13H14.69L15.5 10.7H19.13L19.93 13H21.5L18.12 4ZM15.97 9.39L17.28 5.67H17.36L18.67 9.39H15.97Z"/></svg>
